lib/preview/nrk-logo-preview-nrk-sport-title-below-on-dark.svg

<svg width="42" height="41" viewBox="0 0 42 41" fill="none" xmlns="http://www.w3.org/2000/svg">
<path d="M0 18V6.00109H3.93719V18H0ZM9.29381 7.91078L11.5581 18H7.24917L4.54549 6.00109H6.96218C7.51635 5.9939 8.05406 6.18925 8.4745 6.55039C8.89562 6.89638 9.18495 7.3767 9.29381 7.91078ZM12.1495 18V6.00109H16.0867V18H12.1495ZM19.0605 10.5641C18.6362 10.5682 18.2188 10.4572 17.8525 10.243C17.4912 10.0341 17.1911 9.73396 16.9823 9.3726C16.7678 9.00633 16.6568 8.58876 16.661 8.16432C16.6561 7.74246 16.7672 7.32738 16.9823 6.96443C17.1933 6.60699 17.4931 6.31009 17.8525 6.10252C18.2189 5.8885 18.6362 5.77751 19.0605 5.78138C19.4822 5.77684 19.8971 5.88793 20.2602 6.10252C20.616 6.31191 20.9127 6.60856 21.122 6.96443C21.3368 7.32748 21.4479 7.74249 21.4433 8.16432C21.4473 8.58873 21.3363 9.00623 21.122 9.3726C20.9149 9.73238 20.6179 10.0323 20.2602 10.243C19.8971 10.458 19.4819 10.5691 19.0599 10.5641H19.0605ZM22.0516 18V6.00109H25.9892V18H22.0516ZM30.9737 12.5582C30.9848 12.5699 31.0693 12.7079 31.2272 12.9723C31.3851 13.2367 31.5906 13.5747 31.8439 13.9863C32.0974 14.3977 32.3649 14.8343 32.6463 15.296C32.9278 15.7577 33.1926 16.1944 33.4408 16.6058C33.6881 17.0172 33.9697 17.4819 34.2857 18H29.9598C29.6893 17.5606 29.4441 17.1635 29.2245 16.8086C29.0048 16.4537 28.7713 16.0706 28.5238 15.6594C28.2758 15.2485 28.0306 14.8485 27.7882 14.4595C27.5458 14.0704 27.3375 13.7296 27.1633 13.4371C26.9883 13.1443 26.8671 12.9471 26.7997 12.8455C26.6325 12.5934 26.5336 12.3023 26.5127 12.0005C26.5294 11.7109 26.6226 11.431 26.7828 11.1891C26.8504 11.0764 26.9743 10.8764 27.1545 10.5891C27.3348 10.3018 27.546 9.96105 27.7882 9.56672C28.0304 9.17239 28.2756 8.7696 28.5238 8.35837C28.772 7.94715 29.0056 7.56124 29.2245 7.20071C29.4445 6.84055 29.6897 6.44059 29.9598 6.00081H34.2857L30.9396 11.4595C30.8361 11.6216 30.7777 11.8083 30.7706 12.0005C30.7818 12.2023 30.8522 12.3963 30.9731 12.5582H30.9737Z" fill="white"/>
<path d="M7.36583 29.5385C7.11971 29.2877 6.834 29.0791 6.52015 28.9211C6.19125 28.7546 5.84899 28.616 5.49691 28.5067C5.13609 28.394 4.764 28.2981 4.38063 28.2189C4.08708 28.1515 3.8136 28.0839 3.56027 28.0163C3.32746 27.9561 3.10095 27.8739 2.88376 27.7707C2.69709 27.6823 2.52355 27.5685 2.36815 27.4325C2.22176 27.3035 2.10858 27.1411 2.03808 26.9592C1.96025 26.7451 1.92309 26.5185 1.92845 26.2908C1.92469 26.055 1.96176 25.8204 2.03808 25.5974C2.10751 25.4006 2.22356 25.2236 2.37634 25.0815C2.53466 24.9365 2.7144 24.8168 2.90915 24.7266C3.13195 24.625 3.36843 24.5566 3.61106 24.5236C3.89956 24.4825 4.19066 24.4627 4.48207 24.4644C4.74759 24.4649 5.01293 24.479 5.27703 24.5064C5.54412 24.5343 5.80951 24.5767 6.07198 24.6335C6.32689 24.6888 6.5782 24.7594 6.82461 24.845C7.05533 24.9243 7.27881 25.0233 7.49267 25.1407L7.72948 23.6526C7.48898 23.5271 7.23695 23.4251 6.97685 23.3481C6.71187 23.2694 6.44404 23.2016 6.17343 23.1449C5.89956 23.0883 5.62295 23.046 5.34468 23.0183C5.06278 22.9901 4.77524 22.976 4.48207 22.976C3.88397 22.9695 3.28738 23.0376 2.70613 23.1787C2.21115 23.2982 1.74341 23.5107 1.3277 23.8048C0.944718 24.0796 0.636576 24.4457 0.431304 24.87C0.212359 25.347 0.105302 25.8677 0.118373 26.3923C0.108688 26.7983 0.17463 27.2025 0.312863 27.5844C0.43419 27.9046 0.621525 28.1957 0.862609 28.4388C1.101 28.6768 1.37473 28.8765 1.67415 29.0308C1.99177 29.1944 2.3229 29.3303 2.66387 29.437C3.01906 29.5498 3.38273 29.6456 3.75483 29.7245C4.05928 29.792 4.34117 29.8625 4.60051 29.936C4.84176 30.0025 5.07665 30.0902 5.30242 30.1981C5.49649 30.2897 5.67597 30.4094 5.83517 30.5533C5.98625 30.6952 6.10456 30.8684 6.18189 31.0607C6.2715 31.2925 6.31459 31.5396 6.30873 31.788C6.31318 32.0521 6.27318 32.3151 6.19036 32.566C6.11615 32.783 6.00137 32.9839 5.8521 33.158C5.70202 33.3295 5.5176 33.4678 5.31082 33.5636C5.07706 33.6713 4.82932 33.7454 4.57484 33.7838C4.26435 33.8314 3.9505 33.8541 3.63639 33.8515C3.33101 33.8507 3.02598 33.8309 2.72306 33.7922C2.40734 33.7528 2.09166 33.6991 1.77594 33.6313C1.46476 33.565 1.15711 33.4832 0.854144 33.3861C0.555337 33.2908 0.270617 33.1922 0 33.0903L0.219885 34.7648C0.5082 34.8724 0.801703 34.9654 1.09935 35.0436C1.36958 35.1145 1.64345 35.171 1.91971 35.2127C2.18431 35.252 2.44924 35.283 2.71459 35.3057C2.97995 35.3285 3.24769 35.3397 3.51774 35.3396C4.12325 35.3433 4.72732 35.2809 5.31928 35.1535C5.84332 35.0436 6.34231 34.8372 6.79075 34.5446C7.20918 34.2677 7.54754 33.8856 7.77181 33.4368C8.01892 32.9051 8.13769 32.3229 8.11853 31.737C8.12772 31.3004 8.06187 30.8656 7.92397 30.4513C7.806 30.1103 7.61559 29.7989 7.36583 29.5385Z" fill="#F34531"/>
<path d="M16.6683 26.8746C16.0613 26.5029 15.3585 26.3177 14.6472 26.3418C14.225 26.3439 13.8047 26.3978 13.3956 26.5022C12.9535 26.6148 12.5273 26.7825 12.1271 27.0014C12.0476 27.0443 11.9686 27.0925 11.8903 27.1407V26.3587L10.1651 26.6294V38.7054H11.8903V34.9187C11.9018 34.9235 11.9126 34.9288 11.9241 34.9339C12.2366 35.0636 12.5629 35.1572 12.8966 35.213C13.2906 35.278 13.6895 35.3091 14.0888 35.306C14.8503 35.3191 15.6012 35.1262 16.2621 34.7476C16.9112 34.363 17.4387 33.8033 17.7843 33.1326C18.1838 32.333 18.3785 31.4467 18.3509 30.5533C18.3669 29.7978 18.2197 29.0479 17.9194 28.3545C17.655 27.7502 17.2203 27.2359 16.6683 26.8746ZM16.2202 32.5322C16.017 32.9813 15.6764 33.3543 15.2476 33.5975C14.7709 33.8472 14.2378 33.9697 13.7 33.9529C13.4423 33.9531 13.185 33.9332 12.9304 33.8934C12.6633 33.8509 12.4002 33.7859 12.1439 33.6992C12.0627 33.671 11.9748 33.6389 11.8903 33.6079V28.2702C11.9125 28.2598 11.9356 28.2463 11.9579 28.2361C12.2058 28.1234 12.4369 28.0274 12.6513 27.9483C12.8542 27.8725 13.0637 27.8159 13.2771 27.7792C13.4671 27.7465 13.6595 27.7295 13.8522 27.7284C14.3736 27.7111 14.891 27.8245 15.3573 28.0583C15.7651 28.2802 16.0845 28.6353 16.2621 29.0643C16.4772 29.6133 16.5779 30.2003 16.5581 30.7895C16.5761 31.3883 16.4606 31.9835 16.2202 32.5322Z" fill="#F34531"/>
<path d="M26.5966 26.883C25.8919 26.5085 25.1026 26.3221 24.3048 26.3418C23.4996 26.3233 22.7037 26.5157 21.9958 26.8999C21.3424 27.2656 20.808 27.8116 20.4566 28.4729C20.0749 29.2146 19.8859 30.0404 19.907 30.8743C19.8854 31.7018 20.0623 32.5224 20.4229 33.2676C20.7469 33.918 21.2637 34.4527 21.9028 34.7986C22.5908 35.1589 23.3589 35.3392 24.1354 35.3226C24.9482 35.3387 25.7517 35.1467 26.4694 34.7647C27.1396 34.3992 27.6892 33.8467 28.0512 33.1746C28.4438 32.4241 28.6388 31.586 28.6178 30.7393C28.6369 29.9327 28.4567 29.1339 28.0931 28.4137C27.7562 27.767 27.2355 27.2344 26.5966 26.883ZM26.4948 32.5491C26.3048 32.9885 25.9827 33.3579 25.5733 33.6062C25.1618 33.8416 24.6943 33.9614 24.2202 33.9529C23.7553 33.9644 23.2969 33.841 22.9007 33.5974C22.5087 33.337 22.2026 32.9663 22.0212 32.5321C21.791 31.9751 21.6815 31.3756 21.6998 30.7731C21.6798 30.1869 21.7896 29.6035 22.0212 29.0646C22.2109 28.641 22.5271 28.2865 22.9263 28.0497C23.3529 27.8148 23.8346 27.698 24.3215 27.7115C24.7016 27.702 25.0793 27.7741 25.4293 27.9229C25.7358 28.0613 26.0032 28.2735 26.2076 28.5405C26.4255 28.8306 26.5835 29.1613 26.6724 29.5131C26.7781 29.9246 26.8293 30.3482 26.8246 30.7731C26.8443 31.382 26.732 31.9879 26.4948 32.5491Z" fill="#F34531"/>
<path d="M34.2495 26.4684C33.9332 26.5534 33.6311 26.6845 33.353 26.8574C33.0646 27.0376 32.7979 27.2504 32.5581 27.4916C32.5181 27.5317 32.4794 27.5762 32.4397 27.6182V26.3587L30.7145 26.6124V35.1538H32.4397V28.7638C32.5678 28.6742 32.7005 28.5912 32.8372 28.5152C33.0064 28.4218 33.1816 28.3399 33.3617 28.2699C33.5363 28.2023 33.7139 28.1431 33.8943 28.0923C34.0799 28.0406 34.2694 28.0038 34.4609 27.9821C34.6659 27.9596 34.8723 27.954 35.0782 27.9655L35.2812 26.3753C34.9345 26.3507 34.5861 26.3821 34.2495 26.4684Z" fill="#F34531"/>
<path d="M41.5899 33.7415C41.5107 33.7584 41.4233 33.775 41.3275 33.7922L41.0402 33.8427C40.9479 33.8594 40.8548 33.8708 40.7612 33.8768C40.6706 33.8825 40.586 33.8853 40.5075 33.8853C40.2483 33.8922 39.9909 33.8401 39.7548 33.733C39.5519 33.6367 39.3836 33.4802 39.2728 33.2848C39.1543 33.0641 39.096 32.8161 39.1037 32.5657V27.8809H41.4885L41.6745 26.5278H39.1037V23.8558L37.3784 24.4647V26.5278H36.0761L35.8898 27.8809H37.3784V32.9212C37.3708 33.2574 37.4223 33.5923 37.5307 33.9106C37.6177 34.1624 37.7527 34.3949 37.9281 34.5953C38.0889 34.7741 38.2846 34.918 38.5032 35.0182C38.7268 35.1211 38.9625 35.1951 39.2048 35.2383C39.4448 35.2826 39.6882 35.3052 39.9321 35.306C40.1126 35.306 40.2902 35.3003 40.4652 35.2888C40.6401 35.2774 40.8009 35.2605 40.9473 35.2383C41.0936 35.2155 41.232 35.1901 41.3616 35.162C41.4913 35.1338 41.6009 35.109 41.6912 35.0861L41.7929 33.682C41.7271 33.7075 41.6591 33.7274 41.5899 33.7415Z" fill="#F34531"/>
</svg>

<svg xmlns="http://www.w3.org/2000/svg" viewBox="0 0 42 41"><path fill="#fff" d="M0 18V6.001h3.937V18H0ZM9.294 7.91 11.558 18H7.25L4.545 6.001h2.417a2.276 2.276 0 0 1 1.513.55c.42.345.71.826.819 1.36ZM12.149 18V6.001h3.938V18h-3.938Zm6.912-7.436a2.382 2.382 0 0 1-2.4-2.4 2.301 2.301 0 0 1 .321-1.2 2.41 2.41 0 0 1 3.278-.861c.356.209.653.506.862.861.215.363.326.778.321 1.2a2.35 2.35 0 0 1-.321 1.209 2.4 2.4 0 0 1-.862.87 2.302 2.302 0 0 1-1.2.321ZM22.05 18V6.001h3.938V18h-3.937Zm8.923-5.442c.01.012.095.15.253.414.158.265.364.603.617 1.014a315.936 315.936 0 0 1 1.597 2.62c.247.411.529.876.845 1.394H29.96c-.27-.44-.516-.837-.736-1.191-.22-.355-.453-.738-.7-1.15-.248-.41-.493-.81-.736-1.2-.242-.389-.45-.73-.625-1.022-.175-.293-.296-.49-.363-.591a1.747 1.747 0 0 1-.287-.845c.016-.29.11-.57.27-.812.067-.113.191-.313.371-.6s.392-.628.634-1.022c.242-.395.488-.797.736-1.209a516 516 0 0 1 .7-1.157L29.96 6h4.326l-3.346 5.458a1.08 1.08 0 0 0-.17.542c.012.201.082.395.203.557Z"/><path fill="#F34531" d="M7.366 29.538a3.202 3.202 0 0 0-.846-.617 6.594 6.594 0 0 0-1.023-.414c-.36-.113-.733-.209-1.116-.288a24.168 24.168 0 0 1-.82-.203 3.783 3.783 0 0 1-.677-.245 2.236 2.236 0 0 1-.516-.338 1.217 1.217 0 0 1-.33-.474 1.83 1.83 0 0 1-.11-.668 2.04 2.04 0 0 1 .11-.694c.07-.196.186-.373.338-.516.159-.145.338-.264.533-.354.223-.102.46-.17.702-.203.289-.041.58-.061.871-.06a7.387 7.387 0 0 1 1.59.17c.255.055.506.125.753.211.23.08.454.178.668.296l.236-1.488a4.21 4.21 0 0 0-.752-.305 10.085 10.085 0 0 0-.804-.203 8.02 8.02 0 0 0-.828-.127 8.662 8.662 0 0 0-.863-.042 7.197 7.197 0 0 0-1.776.203 4.02 4.02 0 0 0-1.378.626c-.383.275-.691.64-.897 1.065a3.444 3.444 0 0 0-.313 1.522c-.01.406.057.81.195 1.192.121.32.309.612.55.855.238.238.512.438.811.592.318.163.649.3.99.406.355.113.719.209 1.09.287.305.068.587.139.847.212.24.067.476.154.701.262.194.092.374.211.533.355.151.142.27.315.347.508.09.232.133.479.127.727.004.264-.036.527-.119.778a1.809 1.809 0 0 1-.338.592 1.63 1.63 0 0 1-.541.406 2.733 2.733 0 0 1-.736.22c-.31.047-.625.07-.939.068-.305-.001-.61-.021-.913-.06-.316-.04-.631-.093-.947-.16a9.52 9.52 0 0 1-.922-.246A17.61 17.61 0 0 1 0 33.09l.22 1.675c.288.107.582.2.88.279.27.07.543.127.82.169.264.039.53.07.795.093.265.023.533.034.803.034a8.32 8.32 0 0 0 1.801-.187 4.312 4.312 0 0 0 1.472-.608c.418-.277.757-.66.98-1.108a3.743 3.743 0 0 0 .348-1.7 3.816 3.816 0 0 0-.195-1.286 2.499 2.499 0 0 0-.558-.913ZM16.668 26.875a3.635 3.635 0 0 0-2.02-.533 5.165 5.165 0 0 0-1.252.16 5.443 5.443 0 0 0-1.506.639v-.782l-1.725.27v12.076h1.725V34.92l.034.015c.313.13.639.223.973.279.394.065.793.096 1.192.093a4.226 4.226 0 0 0 2.173-.558 4.014 4.014 0 0 0 1.522-1.615c.4-.8.595-1.686.567-2.58a5.253 5.253 0 0 0-.432-2.198 3.395 3.395 0 0 0-1.25-1.48Zm-.448 5.657c-.203.45-.544.822-.972 1.066-.477.25-1.01.372-1.548.355a4.817 4.817 0 0 1-1.81-.345V28.27l.068-.034c.248-.113.479-.209.693-.288a3.467 3.467 0 0 1 1.201-.22 3.127 3.127 0 0 1 1.505.33c.408.222.727.577.905 1.006a4.33 4.33 0 0 1 .296 1.726 4.04 4.04 0 0 1-.338 1.742ZM26.597 26.883a4.64 4.64 0 0 0-2.292-.541 4.618 4.618 0 0 0-2.31.558 3.9 3.9 0 0 0-1.538 1.573 4.973 4.973 0 0 0-.55 2.401 5.184 5.184 0 0 0 .516 2.394c.324.65.84 1.185 1.48 1.53a4.6 4.6 0 0 0 2.232.525 4.767 4.767 0 0 0 2.334-.558 3.939 3.939 0 0 0 1.582-1.59c.393-.75.588-1.589.567-2.436a4.903 4.903 0 0 0-.525-2.325 3.696 3.696 0 0 0-1.496-1.531Zm-.102 5.666c-.19.44-.512.809-.922 1.057a2.63 2.63 0 0 1-1.353.347 2.406 2.406 0 0 1-1.32-.356 2.38 2.38 0 0 1-.879-1.065 4.266 4.266 0 0 1-.321-1.759c-.02-.586.09-1.17.321-1.708.19-.424.506-.779.905-1.015a2.736 2.736 0 0 1 1.396-.338c.38-.01.757.062 1.107.21.307.14.574.351.779.619.218.29.376.62.464.972.106.412.157.835.153 1.26a4.212 4.212 0 0 1-.33 1.776ZM34.25 26.468a3.34 3.34 0 0 0-.897.39c-.288.18-.555.392-.795.634-.04.04-.079.084-.118.126v-1.26l-1.725.254v8.542h1.725v-6.39a4.334 4.334 0 0 1 .922-.494c.174-.068.352-.127.532-.178a3.638 3.638 0 0 1 1.184-.127l.203-1.59a3.233 3.233 0 0 0-1.032.093ZM41.59 33.742c-.08.016-.167.033-.263.05l-.287.05a2.445 2.445 0 0 1-.279.035c-.09.005-.175.008-.254.008a1.712 1.712 0 0 1-.752-.152 1.093 1.093 0 0 1-.482-.448 1.427 1.427 0 0 1-.17-.72v-4.684h2.386l.186-1.353h-2.571v-2.672l-1.726.609v2.063h-1.302l-.186 1.353h1.488v5.04c-.007.336.044.671.153.99.087.251.222.484.397.684.16.18.357.323.575.423.224.103.46.177.702.22.24.045.483.067.727.068.18 0 .358-.006.533-.017a5.705 5.705 0 0 0 .897-.127c.13-.028.239-.053.33-.076l.1-1.404a1.256 1.256 0 0 1-.202.06Z"/></svg>
